X:715
T:Youghal Quay
T:Miss Johnstone's Reel
R:reel
C:Paddy O'Brien (Nenagh) (1922-1991)
S:Kevin Finucane
Z:id:hn-reel-715
M:C|
K:G
BdcA G2DG|GABA GBdg|fdcA G=FDE|=FGAB cAdc|
BdcA G2DG|GABA GABc|cBBA BGAG|^FGAB cAAc||
|:Bdd^c d3=c|Bdga bg~g2|Bdd^c defg|a2fa gfdc:|
P:variation of 1st part
|:BdcA G2DG|G2BA GBdg|fdBA G^FDE|^FGAB cA~A2:|

